Newaita-dark/apps/48/lskat.svg

<svg height="48pt" viewBox="0 0 48 48" width="48pt" xmlns="http://www.w3.org/2000/svg" xmlns:xlink="http://www.w3.org/1999/xlink"><linearGradient id="a" gradientUnits="userSpaceOnUse" x1="23.81478" x2="23.81478" y1="42.0509045" y2="44.03547050005"><stop offset="0" stop-opacity=".27451"/><stop offset="1" stop-opacity="0"/></linearGradient><linearGradient id="b"><stop offset="0" stop-opacity=".313725"/><stop offset=".222222" stop-opacity=".27451"/><stop offset="1" stop-opacity="0"/></linearGradient><radialGradient id="c" cx="450.908936" cy="189.579361" gradientTransform="matrix(.00000026 -.117199 -.210958 -.00000015 75.219126 95.392999)" gradientUnits="userSpaceOnUse" r="21.166656" xlink:href="#b"/><radialGradient id="d" cx="450.908936" cy="189.579361" gradientTransform="matrix(-.00000026 .117199 .210958 .00000015 -27.589573 -11.291218)" gradientUnits="userSpaceOnUse" r="21.166656" xlink:href="#b"/><radialGradient id="e" cx="450.908936" cy="189.579361" gradientTransform="matrix(-.00000026 -.117199 .210958 -.00000015 -27.589573 95.392999)" gradientUnits="userSpaceOnUse" r="21.166656" xlink:href="#b"/><radialGradient id="f" cx="450.908936" cy="189.579361" gradientTransform="matrix(.00000026 .117199 -.210958 .00000015 75.219123 -11.291219)" gradientUnits="userSpaceOnUse" r="21.166656" xlink:href="#b"/><linearGradient id="g" gradientUnits="userSpaceOnUse" x1="19.8456562499" x2="19.8456562499" y1="42.0509015" y2="4.3441580001"><stop offset="0" stop-color="#ef5350"/><stop offset="1" stop-color="#e57373"/></linearGradient><linearGradient id="h"><stop offset="0" stop-color="#bdbdbd"/><stop offset="1" stop-color="#e0e0e0"/></linearGradient><linearGradient id="i" gradientUnits="userSpaceOnUse" x1="1360.00019898163" x2="1360.00019898163" xlink:href="#h" y1="255.11806569292" y2="455.11807894751"/><linearGradient id="j" gradientUnits="userSpaceOnUse" x1="254" x2="254" xlink:href="#h" y1="-41.666668" y2="106.5"/><linearGradient id="k" gradientUnits="userSpaceOnUse" x1="137.655201" x2="137.655201" xlink:href="#h" y1="159.39195961936" y2="201.6901355"/><path d="m11.90625 42.308594h23.816406v1.453125h-23.816406zm0 0" fill="url(#a)"/><path d="m35.722656 42.050781h3.96875v-1.984375h-3.96875zm0 0" fill="url(#c)"/><path d="m11.90625 42.050781h-3.96875v1.984375h3.96875zm0 0" fill="url(#d)"/><path d="m11.90625 42.050781h-3.96875v-1.984375h3.96875zm0 0" fill="url(#e)"/><path d="m35.722656 42.050781h3.96875v1.984375h-3.96875zm0 0" fill="url(#f)"/><path d="m10.914062 4.34375h25.800782c1.09375 0 1.984375.890625 1.984375 1.984375v33.738281c0 1.097656-.890625 1.984375-1.984375 1.984375h-25.800782c-1.09375 0-1.984374-.886719-1.984374-1.984375v-33.738281c0-1.09375.890624-1.984375 1.984374-1.984375zm0 0" fill="url(#g)"/><path d="m10.914062 4.34375c-1.097656 0-1.984374.886719-1.984374 1.984375v.496094c0-1.097657.886718-1.984375 1.984374-1.984375h25.800782c1.097656 0 1.984375.886718 1.984375 1.984375v-.496094c0-1.097656-.886719-1.984375-1.984375-1.984375zm0 0" fill="#fff" fill-opacity=".392157"/><path d="m10.914062 42.050781c-1.097656 0-1.984374-.886719-1.984374-1.984375v-.496094c0 1.097657.886718 1.984376 1.984374 1.984376h25.800782c1.097656 0 1.984375-.886719 1.984375-1.984376v.496094c0 1.097656-.886719 1.984375-1.984375 1.984375zm0 0" fill-opacity=".235294"/><path d="m10.914062 4.203125c-1.171874 0-2.125.949219-2.125 2.125v33.738281c0 1.175782.953126 2.125 2.125 2.125h25.800782c1.175781 0 2.125-.949218 2.125-2.125v-33.738281c0-1.175781-.949219-2.125-2.125-2.125zm0 .28125h25.800782c1.023437 0 1.84375.820313 1.84375 1.84375v33.738281c0 1.023438-.820313 1.84375-1.84375 1.84375h-25.800782c-1.023437 0-1.84375-.820312-1.84375-1.84375v-33.738281c0-1.023437.820313-1.84375 1.84375-1.84375zm0 0" fill="#212121"/><g stroke="#212121" stroke-linecap="round" stroke-linejoin="round"><path d="m1380.025767 255.093763c-33.225175 0-59.994274 31.178127-59.994274 70.072053v99.990456c0 11.02257 8.818056 19.998092 19.998091 19.998092 11.02257 0 19.998092-8.975522 19.998092-19.998092v-50.073961h79.992365v50.073961c0 11.02257 8.975521 19.998092 19.998091 19.998092s19.998092-8.975522 19.998092-19.998092v-99.990456c0-38.893926-26.769099-70.072053-59.994274-70.072053zm0 39.996183h39.996183c11.02257 0 19.998091 13.384549 19.998091 30.07587v19.998091h-79.992365v-19.998091c0-16.691321 8.818056-30.07587 19.998091-30.07587zm0 0" fill="url(#i)" stroke-width="11.338583" transform="scale(.0248071)"/><path d="m253.767433-41.599892c-3.041376.083325-5.874439 1.458194-7.832585 3.791304l-52.911614 63.493937c-3.24969 3.916293-3.24969 9.540756 0 13.457048l52.911614 63.493937c4.207931 5.041185 11.915529 5.041185 16.12346 0l52.911614-63.493937c3.24969-3.916292 3.24969-9.540755 0-13.457048l-52.911614-63.493937c-2.041472-2.458098-5.124511-3.832967-8.290875-3.791304zm0 0" fill="url(#j)" stroke-width="3" transform="matrix(.093759 0 0 .093759 0 20.158175)"/><path d="m137.570196 159.422578c-.833254 0-1.666507.416627-2.208122 1.08323l-15.123556 18.123269c-.916579 1.124893-.916579 2.708075 0 3.832967l15.123556 18.12327c1.208218 1.458194 3.41634 1.458194 4.582895 0l15.123556-18.12327c.916579-1.124892.916579-2.708074 0-3.832967l-15.123556-18.123269c-.583277-.708266-1.458194-1.124893-2.374773-1.08323zm0 0" fill="url(#k)" stroke-width="3" transform="matrix(.093759 0 0 .093759 0 20.158175)"/></g></svg>

<?xml version="1.0" encoding="UTF-8"?>
<svg xmlns="http://www.w3.org/2000/svg" xmlns:xlink="http://www.w3.org/1999/xlink" width="48pt" height="48pt" viewBox="0 0 48 48" version="1.1">
<defs>
<linearGradient id="linear0" gradientUnits="userSpaceOnUse" x1="254" y1="233.5" x2="254" y2="254.666672" gradientTransform="matrix(0.093759,0,0,0.093759,-0.00000572259,20.158178)">
<stop offset="0" style="stop-color:rgb(0%,0%,0%);stop-opacity:0.27451;"/>
<stop offset="1" style="stop-color:rgb(0%,0%,0%);stop-opacity:0;"/>
</linearGradient>
<radialGradient id="radial0" gradientUnits="userSpaceOnUse" cx="450.908936" cy="189.579361" fx="450.908936" fy="189.579361" r="21.166656" gradientTransform="matrix(0.000000261256,-0.117199,-0.210958,-0.000000152308,75.219126,95.392999)">
<stop offset="0" style="stop-color:rgb(0%,0%,0%);stop-opacity:0.313725;"/>
<stop offset="0.222222" style="stop-color:rgb(0%,0%,0%);stop-opacity:0.27451;"/>
<stop offset="1" style="stop-color:rgb(0%,0%,0%);stop-opacity:0;"/>
</radialGradient>
<radialGradient id="radial1" gradientUnits="userSpaceOnUse" cx="450.908936" cy="189.579361" fx="450.908936" fy="189.579361" r="21.166656" gradientTransform="matrix(-0.000000261256,0.117199,0.210958,0.000000152308,-27.589573,-11.291218)">
<stop offset="0" style="stop-color:rgb(0%,0%,0%);stop-opacity:0.313725;"/>
<stop offset="0.222222" style="stop-color:rgb(0%,0%,0%);stop-opacity:0.27451;"/>
<stop offset="1" style="stop-color:rgb(0%,0%,0%);stop-opacity:0;"/>
</radialGradient>
<radialGradient id="radial2" gradientUnits="userSpaceOnUse" cx="450.908936" cy="189.579361" fx="450.908936" fy="189.579361" r="21.166656" gradientTransform="matrix(-0.000000261256,-0.117199,0.210958,-0.000000152308,-27.589573,95.392999)">
<stop offset="0" style="stop-color:rgb(0%,0%,0%);stop-opacity:0.313725;"/>
<stop offset="0.222222" style="stop-color:rgb(0%,0%,0%);stop-opacity:0.27451;"/>
<stop offset="1" style="stop-color:rgb(0%,0%,0%);stop-opacity:0;"/>
</radialGradient>
<radialGradient id="radial3" gradientUnits="userSpaceOnUse" cx="450.908936" cy="189.579361" fx="450.908936" fy="189.579361" r="21.166656" gradientTransform="matrix(0.000000261256,0.117199,-0.210958,0.000000152308,75.219123,-11.291219)">
<stop offset="0" style="stop-color:rgb(0%,0%,0%);stop-opacity:0.313725;"/>
<stop offset="0.222222" style="stop-color:rgb(0%,0%,0%);stop-opacity:0.27451;"/>
<stop offset="1" style="stop-color:rgb(0%,0%,0%);stop-opacity:0;"/>
</radialGradient>
<linearGradient id="linear1" gradientUnits="userSpaceOnUse" x1="243.416656" y1="233.5" x2="243.416656" y2="-168.666656" gradientTransform="matrix(0.093759,0,0,0.093759,-2.976846,20.158175)">
<stop offset="0" style="stop-color:rgb(93.72549%,32.54902%,31.372549%);stop-opacity:1;"/>
<stop offset="1" style="stop-color:rgb(89.803922%,45.098039%,45.098039%);stop-opacity:1;"/>
</linearGradient>
<linearGradient id="linear2" gradientUnits="userSpaceOnUse" x1="359.833344" y1="-147.499985" x2="359.833344" y2="-94.583321" gradientTransform="matrix(3.779528,0,0,3.779528,0,812.598389)">
<stop offset="0" style="stop-color:rgb(74.117647%,74.117647%,74.117647%);stop-opacity:1;"/>
<stop offset="1" style="stop-color:rgb(87.843137%,87.843137%,87.843137%);stop-opacity:1;"/>
</linearGradient>
<linearGradient id="linear3" gradientUnits="userSpaceOnUse" x1="254" y1="-41.666668" x2="254" y2="106.5" gradientTransform="matrix(1,0,0,1,0,0)">
<stop offset="0" style="stop-color:rgb(74.117647%,74.117647%,74.117647%);stop-opacity:1;"/>
<stop offset="1" style="stop-color:rgb(87.843137%,87.843137%,87.843137%);stop-opacity:1;"/>
</linearGradient>
<linearGradient id="linear4" gradientUnits="userSpaceOnUse" x1="254" y1="-41.666668" x2="254" y2="106.5" gradientTransform="matrix(0.285477,0,0,0.285477,65.144043,171.286835)">
<stop offset="0" style="stop-color:rgb(74.117647%,74.117647%,74.117647%);stop-opacity:1;"/>
<stop offset="1" style="stop-color:rgb(87.843137%,87.843137%,87.843137%);stop-opacity:1;"/>
</linearGradient>
</defs>
<g id="surface1">
<path style=" stroke:none;fill-rule:nonzero;fill:url(#linear0);" d="M 11.90625 42.308594 L 35.722656 42.308594 L 35.722656 43.761719 L 11.90625 43.761719 Z M 11.90625 42.308594 "/>
<path style=" stroke:none;fill-rule:nonzero;fill:url(#radial0);" d="M 35.722656 42.050781 L 39.691406 42.050781 L 39.691406 40.066406 L 35.722656 40.066406 Z M 35.722656 42.050781 "/>
<path style=" stroke:none;fill-rule:nonzero;fill:url(#radial1);" d="M 11.90625 42.050781 L 7.9375 42.050781 L 7.9375 44.035156 L 11.90625 44.035156 Z M 11.90625 42.050781 "/>
<path style=" stroke:none;fill-rule:nonzero;fill:url(#radial2);" d="M 11.90625 42.050781 L 7.9375 42.050781 L 7.9375 40.066406 L 11.90625 40.066406 Z M 11.90625 42.050781 "/>
<path style=" stroke:none;fill-rule:nonzero;fill:url(#radial3);" d="M 35.722656 42.050781 L 39.691406 42.050781 L 39.691406 44.035156 L 35.722656 44.035156 Z M 35.722656 42.050781 "/>
<path style=" stroke:none;fill-rule:nonzero;fill:url(#linear1);" d="M 10.914062 4.34375 L 36.714844 4.34375 C 37.808594 4.34375 38.699219 5.234375 38.699219 6.328125 L 38.699219 40.066406 C 38.699219 41.164062 37.808594 42.050781 36.714844 42.050781 L 10.914062 42.050781 C 9.820312 42.050781 8.929688 41.164062 8.929688 40.066406 L 8.929688 6.328125 C 8.929688 5.234375 9.820312 4.34375 10.914062 4.34375 Z M 10.914062 4.34375 "/>
<path style=" stroke:none;fill-rule:nonzero;fill:rgb(100%,100%,100%);fill-opacity:0.392157;" d="M 10.914062 4.34375 C 9.816406 4.34375 8.929688 5.230469 8.929688 6.328125 L 8.929688 6.824219 C 8.929688 5.726562 9.816406 4.839844 10.914062 4.839844 L 36.714844 4.839844 C 37.8125 4.839844 38.699219 5.726562 38.699219 6.824219 L 38.699219 6.328125 C 38.699219 5.230469 37.8125 4.34375 36.714844 4.34375 Z M 10.914062 4.34375 "/>
<path style=" stroke:none;fill-rule:nonzero;fill:rgb(0%,0%,0%);fill-opacity:0.235294;" d="M 10.914062 42.050781 C 9.816406 42.050781 8.929688 41.164062 8.929688 40.066406 L 8.929688 39.570312 C 8.929688 40.667969 9.816406 41.554688 10.914062 41.554688 L 36.714844 41.554688 C 37.8125 41.554688 38.699219 40.667969 38.699219 39.570312 L 38.699219 40.066406 C 38.699219 41.164062 37.8125 42.050781 36.714844 42.050781 Z M 10.914062 42.050781 "/>
<path style=" stroke:none;fill-rule:nonzero;fill:rgb(12.941177%,12.941177%,12.941177%);fill-opacity:1;" d="M 10.914062 4.203125 C 9.742188 4.203125 8.789062 5.152344 8.789062 6.328125 L 8.789062 40.066406 C 8.789062 41.242188 9.742188 42.191406 10.914062 42.191406 L 36.714844 42.191406 C 37.890625 42.191406 38.839844 41.242188 38.839844 40.066406 L 38.839844 6.328125 C 38.839844 5.152344 37.890625 4.203125 36.714844 4.203125 Z M 10.914062 4.484375 L 36.714844 4.484375 C 37.738281 4.484375 38.558594 5.304688 38.558594 6.328125 L 38.558594 40.066406 C 38.558594 41.089844 37.738281 41.910156 36.714844 41.910156 L 10.914062 41.910156 C 9.890625 41.910156 9.070312 41.089844 9.070312 40.066406 L 9.070312 6.328125 C 9.070312 5.304688 9.890625 4.484375 10.914062 4.484375 Z M 10.914062 4.484375 "/>
<path style="fill-rule:nonzero;fill:url(#linear2);stroke-width:11.338583;stroke-linecap:round;stroke-linejoin:round;stroke:rgb(12.941177%,12.941177%,12.941177%);stroke-opacity:1;stroke-miterlimit:4;" d="M 1380.025767 255.093763 C 1346.800592 255.093763 1320.031493 286.27189 1320.031493 325.165816 L 1320.031493 425.156272 C 1320.031493 436.178842 1328.849549 445.154364 1340.029584 445.154364 C 1351.052154 445.154364 1360.027676 436.178842 1360.027676 425.156272 L 1360.027676 375.082311 L 1440.020041 375.082311 L 1440.020041 425.156272 C 1440.020041 436.178842 1448.995562 445.154364 1460.018132 445.154364 C 1471.040702 445.154364 1480.016224 436.178842 1480.016224 425.156272 L 1480.016224 325.165816 C 1480.016224 286.27189 1453.247125 255.093763 1420.02195 255.093763 Z M 1380.025767 295.089946 L 1420.02195 295.089946 C 1431.04452 295.089946 1440.020041 308.474495 1440.020041 325.165816 L 1440.020041 345.163907 L 1360.027676 345.163907 L 1360.027676 325.165816 C 1360.027676 308.474495 1368.845732 295.089946 1380.025767 295.089946 Z M 1380.025767 295.089946 " transform="matrix(0.0248071,0,0,0.0248071,0,0)"/>
<path style="fill-rule:nonzero;fill:url(#linear3);stroke-width:3;stroke-linecap:round;stroke-linejoin:round;stroke:rgb(12.941177%,12.941177%,12.941177%);stroke-opacity:1;stroke-miterlimit:4;" d="M 253.767433 -41.599892 C 250.726057 -41.516567 247.892994 -40.141698 245.934848 -37.808588 L 193.023234 25.685349 C 189.773544 29.601642 189.773544 35.226105 193.023234 39.142397 L 245.934848 102.636334 C 250.142779 107.677519 257.850377 107.677519 262.058308 102.636334 L 314.969922 39.142397 C 318.219612 35.226105 318.219612 29.601642 314.969922 25.685349 L 262.058308 -37.808588 C 260.016836 -40.266686 256.933797 -41.641555 253.767433 -41.599892 Z M 253.767433 -41.599892 " transform="matrix(0.093759,0,0,0.093759,0,20.158175)"/>
<path style="fill-rule:nonzero;fill:url(#linear4);stroke-width:3;stroke-linecap:round;stroke-linejoin:round;stroke:rgb(12.941177%,12.941177%,12.941177%);stroke-opacity:1;stroke-miterlimit:4;" d="M 137.570196 159.422578 C 136.736942 159.422578 135.903689 159.839205 135.362074 160.505808 L 120.238518 178.629077 C 119.321939 179.75397 119.321939 181.337152 120.238518 182.462044 L 135.362074 200.585314 C 136.570292 202.043508 138.778414 202.043508 139.944969 200.585314 L 155.068525 182.462044 C 155.985104 181.337152 155.985104 179.75397 155.068525 178.629077 L 139.944969 160.505808 C 139.361692 159.797542 138.486775 159.380915 137.570196 159.422578 Z M 137.570196 159.422578 " transform="matrix(0.093759,0,0,0.093759,0,20.158175)"/>
</g>
</svg>
